X:134
T:Slip simple chords 6
M:3/4
L:1/8
K:Am
[g2G,2B,2D2] dB2G | ^FG A[DD,F,A,C] FA | cB AB cd | [g2G,2B,2D2] dB2G | ^FG A[G2G,2B,2D2]B |
AG ^F2<G2 | [g2G,2B,2D2] dB2G | ^FG A[DD,F,A,C] FA | cB AB cd |
[g2G,2B,2D2] dB2G | ^FG A[G2G,2B,2D2]B | AG ^F2<G2 | [g2G,2B,2D2] gb ag |
^fg a[dD,F,A,] e=f | ed cB AG | [g2G,2B,2D2] gb ag | ^fg a[d2_B,2D2=F2]e |
f3e2d | [g2G,2B,2D2] gb ag | ^fg a[dD,F,A,] e=f | ed cB AG |
[g2G,2B,2D2] gb ag | ^fg a[d2_B,2D2=F2]e | f3e2d | [B2G,2B,2D2] cd2B |
G2 D[F2F,2A,2C2]A | c2 AF2^F | [G2G,2B,2D2] Bd2B | G2 D[FF,A,C] GA |
G2 D2<G2 | [B2G,2B,2D2] cd2B | G2 D[F2F,2A,2C2]A | c2 AF2^F |
[G2G,2B,2D2] Bd2B | G2 D[FF,A,C] GA | G2 D2<G2 | [dG,B,D]^c dg2g |
F2>[d2G,2B,2D2] ^cd | BA G2<F2 | [dG,B,D]^c dg2g | E3[e3C,3E,3G,3] |
^d3=d3 | [dG,B,D]^c dg2g | F2>[d2G,2B,2D2] ^cd | BA G2<F2 |
[dG,B,D]^c dg2g | E2>[^F2=F,2A,2C2] e3 |f3 f3 |


